public/icons/tokens/frax.svg

<svg width="256" height="256" viewBox="0 0 256 256" fill="none" xmlns="http://www.w3.org/2000/svg">
<g clip-path="url(#clip0)">
<path d="M128 256C198.692 256 256 198.692 256 128C256 57.3075 198.692 0 128 0C57.3076 0 0 57.3075 0 128C0 198.692 57.3076 256 128 256Z" fill="black" stroke="black" stroke-width="1.2373" stroke-miterlimit="11.3386"/>
<path d="M57.3882 56.8039C51.9912 62.4708 47.5386 67.2382 47.4936 67.3282C47.4487 67.4631 52.306 72.2305 58.2877 77.8974C64.2695 83.6093 69.4866 88.6016 69.8464 88.9164L70.5211 89.546L69.3067 91.5699C58.6475 109.2 56.4438 130.429 63.1451 149.948C64.4044 153.636 66.5632 158.358 68.4072 161.462C69.3067 162.991 69.7115 163.98 69.6215 164.16C69.5316 164.34 64.0896 170.097 57.5232 176.978C50.9568 183.814 45.6047 189.526 45.5147 189.616C45.4698 189.751 63.8647 207.517 65.6187 208.956L66.2934 209.54L76.6827 198.701C82.3946 192.72 87.7466 187.098 88.5562 186.243L90.0854 184.714L91.5246 185.614C98.8556 190.291 107.446 193.529 116.936 195.238C121.703 196.093 130.788 196.318 135.87 195.688C145.675 194.564 155.39 191.28 163.35 186.468L165.419 185.209L167.623 187.368C172.435 192.045 190.425 209.136 190.605 209.226C190.785 209.316 210.529 188.672 210.484 188.402C210.44 188.267 196.902 175.269 188.626 167.488L185.883 164.88L187.142 162.811C197.711 145.226 199.915 123.907 193.079 104.253C192.09 101.375 189.076 94.8981 187.322 91.9297L186.468 90.4455L198.026 78.3472C204.368 71.7358 209.54 66.2038 209.495 66.0689C209.315 65.6191 189.076 46.5046 188.806 46.5046C188.626 46.5046 183.544 51.6767 177.473 58.0632C171.401 64.4048 166.364 69.6219 166.229 69.6669C166.139 69.7119 165.554 69.442 165.014 69.0373C163.485 68.0028 159.617 65.889 157.459 64.8995C150.892 61.8862 144.775 60.0422 137.669 59.0077C133.981 58.468 122.917 58.3781 119.499 58.8728C111.314 60.0422 104.612 62.0661 97.7761 65.4842C95.7972 66.4287 93.5035 67.688 92.604 68.2277L90.9849 69.2172L89.1409 67.4181C88.1514 66.4287 83.6539 62.201 79.2013 57.9283C74.7487 53.7006 70.2062 49.383 69.1268 48.3036L67.1479 46.3696L57.3882 56.8039ZM132.902 86.1279C140.053 86.9824 146.44 89.4111 152.331 93.5488C155.345 95.6627 159.842 100.16 161.956 103.174C173.964 120.174 171.671 143.292 156.559 157.459C143.651 169.512 124.986 172.211 109.29 164.205C97.956 158.403 89.9504 147.789 87.3868 135.061C86.5773 131.013 86.5773 123.457 87.3868 119.455C88.1514 115.497 89.1858 112.663 91.1198 108.706C98.8556 93.1441 115.631 84.059 132.902 86.1279Z" fill="white"/>
</g>
<defs>
<clipPath id="clip0">
<rect width="256" height="256" fill="white"/>
</clipPath>
</defs>
</svg>

<svg width="256" height="256" viewBox="0 0 256 256" fill="none" xmlns="http://www.w3.org/2000/svg"><g clip-path="url(#a)"><path d="M128 256c70.692 0 128-57.308 128-128C256 57.308 198.692 0 128 0 57.308 0 0 57.307 0 128c0 70.692 57.308 128 128 128Z" fill="#000" stroke="#000" stroke-width="1.237" stroke-miterlimit="11.339"/><path d="M57.388 56.804c-5.397 5.667-9.85 10.434-9.894 10.524-.045.135 4.812 4.903 10.794 10.57 5.981 5.711 11.199 10.704 11.558 11.018l.675.63-1.214 2.024c-10.66 17.63-12.863 38.859-6.162 58.378 1.26 3.688 3.418 8.41 5.262 11.514.9 1.529 1.305 2.518 1.215 2.698-.09.18-5.532 5.937-12.099 12.818-6.566 6.836-11.918 12.548-12.008 12.638-.045.135 18.35 17.901 20.104 19.34l.674.584 10.39-10.839a7342.608 7342.608 0 0 0 11.873-12.458l1.53-1.529 1.439.9c7.33 4.677 15.921 7.915 25.411 9.624 4.767.855 13.852 1.08 18.934.45 9.805-1.124 19.52-4.408 27.48-9.22l2.069-1.259 2.204 2.159c4.812 4.677 22.802 21.768 22.982 21.858.18.09 19.924-20.554 19.879-20.824-.044-.135-13.582-13.133-21.858-20.914l-2.743-2.608 1.259-2.069c10.569-17.585 12.773-38.904 5.937-58.558-.989-2.878-4.003-9.355-5.757-12.323l-.854-1.485 11.558-12.098c6.342-6.611 11.514-12.143 11.469-12.278-.18-.45-20.419-19.564-20.689-19.564-.18 0-5.262 5.172-11.333 11.558-6.072 6.342-11.109 11.559-11.244 11.604-.09.045-.675-.225-1.215-.63-1.529-1.034-5.397-3.148-7.555-4.138-6.567-3.013-12.684-4.857-19.79-5.891-3.688-.54-14.752-.63-18.17-.135-8.185 1.17-14.887 3.193-21.723 6.611-1.979.945-4.272 2.204-5.172 2.744l-1.62.99-1.843-1.8c-.99-.99-5.487-5.217-9.94-9.49-4.452-4.227-8.995-8.545-10.074-9.624l-1.98-1.934-9.759 10.434Zm75.514 29.324c7.151.854 13.538 3.283 19.429 7.42 3.014 2.115 7.511 6.612 9.625 9.626 12.008 17 9.715 40.118-5.397 54.285-12.908 12.053-31.573 14.752-47.269 6.746-11.334-5.802-19.34-16.416-21.903-29.144-.81-4.048-.81-11.604 0-15.606.764-3.958 1.799-6.792 3.733-10.749 7.736-15.562 24.511-24.647 41.782-22.578Z" fill="#fff"/></g><defs><clipPath id="a"><path fill="#fff" d="M0 0h256v256H0z"/></clipPath></defs></svg>
